svg/editor/textbox_line.svg

<?xml version="1.0" encoding="UTF-8"?>
<svg width="24px" height="24px" viewBox="0 0 24 24" version="1.1" xmlns="http://www.w3.org/2000/svg" xmlns:xlink="http://www.w3.org/1999/xlink">
    <title>textbox_line</title>
    <g id="Icon" stroke="none" stroke-width="1" fill="none" fill-rule="evenodd">
        <g id="Editor" transform="translate(-912.000000, -192.000000)" fill-rule="nonzero">
            <g id="textbox_line" transform="translate(912.000000, 192.000000)">
                <path d="M24,0 L24,24 L0,24 L0,0 L24,0 Z M12.5935,23.2578 L12.5819,23.2595 L12.5109,23.295 L12.4919,23.2987 L12.4767,23.295 L12.4057,23.2595 C12.3958,23.2564 12.387,23.259 12.3821,23.2649 L12.378,23.2758 L12.3609,23.7031 L12.3659,23.7235 L12.3769,23.7357 L12.4805,23.8097 L12.4953,23.8136 L12.5071,23.8097 L12.6107,23.7357 L12.6233,23.7197 L12.6267,23.7031 L12.6096,23.2758 C12.6076,23.2657 12.601,23.2593 12.5935,23.2578 Z M12.8584,23.1453 L12.8445,23.1473 L12.6598,23.2397 L12.6499,23.2499 L12.6472,23.2611 L12.6651,23.6906 L12.6699,23.7034 L12.6784,23.7105 L12.8793,23.8032 C12.8914,23.8069 12.9022,23.803 12.9078,23.7952 L12.9118,23.7812 L12.8777,23.1665 C12.8753,23.1546 12.8674,23.147 12.8584,23.1453 Z M12.143,23.1473 C12.1332,23.1424 12.1222,23.1453 12.1156,23.1526 L12.1099,23.1665 L12.0758,23.7812 C12.0751,23.7927 12.0828,23.8019 12.0926,23.8046 L12.1083,23.8032 L12.3092,23.7105 L12.3186,23.7024 L12.3225,23.6906 L12.3404,23.2611 L12.3372,23.2485 L12.3278,23.2397 L12.143,23.1473 Z" id="MingCute"></path>
                <path d="M12,3 C12.7684,3 13.4692,3.28885 14,3.7639 C14.5308,3.28885 15.2316,3 16,3 L17,3 C17.5523,3 18,3.44772 18,4 C18,4.55228 17.5523,5 17,5 L16,5 C15.4477,5 15,5.44772 15,6 L15,18 C15,18.5523 15.4477,19 16,19 L17,19 C17.5523,19 18,19.4477 18,20 C18,20.5523 17.5523,21 17,21 L16,21 C15.2316,21 14.5308,20.7111 14,20.2361 C13.4692,20.7111 12.7684,21 12,21 L11,21 C10.4477,21 10,20.5523 10,20 C10,19.4477 10.4477,19 11,19 L12,19 C12.5523,19 13,18.5523 13,18 L13,6 C13,5.44772 12.5523,5 12,5 L11,5 C10.4477,5 10,4.55228 10,4 C10,3.44772 10.4477,3 11,3 L12,3 Z M12,7 L12,9 L5,9 L5,15 L12,15 L12,17 L5,17 C3.94563773,17 3.08183483,16.18415 3.00548573,15.1492661 L3,15 L3,9 C3,7.94563773 3.81587733,7.08183483 4.85073759,7.00548573 L5,7 L12,7 Z M19,7 C20.0543909,7 20.9181678,7.81587733 20.9945144,8.85073759 L21,9 L21,15 C21,16.0543909 20.18415,16.9181678 19.1492661,16.9945144 L19,17 L16,17 L16,15 L19,15 L19,9 L16,9 L16,7 L19,7 Z" id="形状" fill="#09244B"></path>
            </g>
        </g>
    </g>
</svg>

<svg xmlns="http://www.w3.org/2000/svg" width="24" height="24"><g fill="none" fill-rule="nonzero"><path d="M24 0v24H0V0h24ZM12.594 23.258l-.012.002-.071.035-.02.004-.014-.004-.071-.036c-.01-.003-.019 0-.024.006l-.004.01-.017.428.005.02.01.013.104.074.015.004.012-.004.104-.074.012-.016.004-.017-.017-.427c-.002-.01-.009-.017-.016-.018Zm.264-.113-.014.002-.184.093-.01.01-.003.011.018.43.005.012.008.008.201.092c.012.004.023 0 .029-.008l.004-.014-.034-.614c-.003-.012-.01-.02-.02-.022Zm-.715.002a.023.023 0 0 0-.027.006l-.006.014-.034.614c0 .012.007.02.017.024l.015-.002.201-.093.01-.008.003-.011.018-.43-.003-.012-.01-.01-.184-.092Z"/><path fill="#09244B" d="M12 3c.768 0 1.47.289 2 .764A2.989 2.989 0 0 1 16 3h1a1 1 0 1 1 0 2h-1a1 1 0 0 0-1 1v12a1 1 0 0 0 1 1h1a1 1 0 1 1 0 2h-1c-.768 0-1.47-.289-2-.764A2.989 2.989 0 0 1 12 21h-1a1 1 0 1 1 0-2h1a1 1 0 0 0 1-1V6a1 1 0 0 0-1-1h-1a1 1 0 1 1 0-2h1Zm0 4v2H5v6h7v2H5a2 2 0 0 1-1.995-1.85L3 15V9a2 2 0 0 1 1.85-1.995L5 7h7Zm7 0a2 2 0 0 1 1.995 1.85L21 9v6a2 2 0 0 1-1.85 1.995L19 17h-3v-2h3V9h-3V7h3Z"/></g></svg>
